X:362
T:Padraig O'Keeffe's
R:jig
Z:id:hn-jig-362
M:6/8
L:1/8
K:G
agf gfe|fed B2A|agf gfe|fdd d2f|
agf gfe|fed B2A|GAB dBA|FEE E3:|
|:GAB d2B|dBe dBA|GAB dBA|Bee edB|
GAB d2B|dBe dBA|GAB dBA|FEE E3:|

